X:384
T:Reel 384
M:4/4
K:Amin
L:1/8
ED|C>A, (3A,A,A, C>A, (3A,G,A, |C>A, (3A,G,A, C>D (3EFG ||C>C (3CCC E>D (3CB,A, |DB,G,B, DFED:||2C2CB, CEGE|DB,G,B, D2|ED|C2CA, E,A,CA,|CDED EDCA,|DB,G,B, DB,G,B,|DG,DC DG,G,D|C2EA, CA,EA,|CA,EC DFED|CB,CD ECA,B,|G,A,B,G, D2|
